X: 28772
T: My Love Is A Fair Lad
R: jig
M: 6/8
K: Amixolydian
|:AAA cAc|Bdc BGB|AAA cAc|fgf Bcd|
AAA cAc|Bdc BGB|efe edB|1 ABA A2e:|2 ABA A2g||
|:aea aec|gfg Bcd|aea aef|gag def|
aea aec|gfg Bcd|efe edB|1 ABA A2g:|2 ABA A2e||

